outputs/icons/action/clock_sharp.svg

<svg xmlns="http://www.w3.org/2000/svg" width="1200" height="1200" fill="none"><g clip-path="url(#a)"><path fill="#000" d="M600 100c-275 0-500 225-500 500s225 500 500 500 500-225 500-500-225-500-500-500m210 710L550 650V350h75v260l225 135z"/></g><defs><clipPath id="a"><path fill="#fff" d="M0 0h1200v1200H0z"/></clipPath></defs></svg>

<svg width="1200" height="1200" viewBox="0 0 1200 1200" fill="none" xmlns="http://www.w3.org/2000/svg"><g clip-path="url(#clip0_117_812)"><path d="M600 100C325 100 100 325 100 600C100 875 325 1100 600 1100C875 1100 1100 875 1100 600C1100 325 875 100 600 100ZM810 810L550 650V350H625V610L850 745L810 810Z" fill="black"/></g><defs><clipPath id="clip0_117_812"><path width="24" fill="white" d="M0 0H1200V1200H0V0z"/></clipPath></defs></svg>
